X:1
T:title
M:4/4
Q:120
L:1/8
R:Reel
K:C
 ^b3 ^D4c' |  _A4 _b' _b' ^e' _F |  ^d'4 _E3 ^g |  _A4 _a3F |  _f' ^g3A2 ^D2 | c'4e2Ad | d2E2 ^f ^c'a'2 |  ^f4 _A4 | 